X: 1
T: Farewell, Sweet Nora -- Jig
R: jig
M: 6/8
B: Ryan's Mammoth Collection
Z: Contributed by Ray Davies, ray:davies99.freeserve.co.uk
K: G
vDED GAB|AGA BGE|DED GAB|AdB AGE|
DED GAB|AGA Bcd|ege dBG|"4"AGG G2z:|
vdBd efg|fed cBA|GFG Bcd|efg a3 |
{ga}vbag {fg}vagf|{ef}gfe dBG|ege dBG|"4"AGG G2z:|
